app/dist/common/images/centamin.svg

<svg fill="none" height="18" viewBox="0 0 18 18" width="18" xmlns="http://www.w3.org/2000/svg"><path d="m0 0h18v18h-18z" fill="#b5a268"/><path d="m11.7932 11.0106c2.3555-.1134 4.2068-1.36092 4.2068-1.36092s-.7875.18901-3.0671.30242c-.7218.0378-1.2537 0-1.7476-.0756l.5319-1.05847h.076c2.3555-.11341 4.2068-1.36088 4.2068-1.36088s-.7875.18901-3.0671.30242c-.2279 0-.4559 0-.6458 0l1.4437-2.75957h-9.38412l.75985 1.47429c-2.20355.0756-3.10653 1.05846-3.10653 1.05846 1.86162-.30241 1.70082-.34022 3.29649-.15121.11398 0 .18996.03781.30394.03781l.64587 1.24747c-2.77344-.26461-4.2463 1.02066-4.2463 1.02066 1.86162-.30241 1.70082-.34022 3.29649-.1512.4939.0756 1.0258.18901 1.55769.34022l-.15197-.30242.75985 1.43652c-.15197-.0378-.30395-.0756-.45592-.1134-3.11536-.6427-5.00614.9072-5.00614.9072 1.86162-.3024 1.70082-.3402 3.29649-.1512.91182.1134 1.89962.4536 2.88742.7561l.83583 1.5907.64586-1.1749c.7219.189 1.4437.3024 2.1656.2646 2.3555-.1134 4.1688-1.3609 4.1688-1.3609s-.7495.189-3.0291.3024c-1.2157.0756-1.8996-.0756-2.7354-.3024l.4179-.7938c.3799.0756.7598.0756 1.1398.0756zm-1.5577-1.32312-.5699 1.05842-.41791.7939-.30394.567-3.15336-6.1068h6.34471l-.9118 1.75957-.5319 1.02066z" fill="#fff"/></svg>

<!-- by TradingView --><svg width="18" height="18" viewBox="0 0 18 18" fill="none" xmlns="http://www.w3.org/2000/svg">
<rect width="18" height="18" fill="#B5A268"/>
<path d="M11.7932 11.0106C14.1487 10.8972 16 9.64968 16 9.64968C16 9.64968 15.2125 9.83869 12.9329 9.9521C12.2111 9.9899 11.6792 9.9521 11.1853 9.8765L11.7172 8.81803C11.7552 8.81803 11.7552 8.81803 11.7932 8.81803C14.1487 8.70462 16 7.45715 16 7.45715C16 7.45715 15.2125 7.64616 12.9329 7.75957C12.705 7.75957 12.477 7.75957 12.2871 7.75957L13.7308 5H4.34668L5.10653 6.47429C2.90298 6.54989 2 7.53275 2 7.53275C3.86162 7.23034 3.70082 7.19253 5.29649 7.38154C5.41047 7.38154 5.48645 7.41935 5.60043 7.41935L6.2463 8.66682C3.47286 8.40221 2 9.68748 2 9.68748C3.86162 9.38507 3.70082 9.34726 5.29649 9.53628C5.79039 9.61188 6.32229 9.72529 6.85418 9.8765L6.70221 9.57408L7.46206 11.0106C7.31009 10.9728 7.15811 10.935 7.00614 10.8972C3.89078 10.2545 2 11.8044 2 11.8044C3.86162 11.502 3.70082 11.4642 5.29649 11.6532C6.20831 11.7666 7.19611 12.1068 8.18391 12.4093L9.01974 14L9.6656 12.8251C10.3875 13.0141 11.1093 13.1275 11.8312 13.0897C14.1867 12.9763 16 11.7288 16 11.7288C16 11.7288 15.2505 11.9178 12.9709 12.0312C11.7552 12.1068 11.0713 11.9556 10.2355 11.7288L10.6534 10.935C11.0333 11.0106 11.4132 11.0106 11.7932 11.0106ZM10.2355 9.68748L9.6656 10.7459L9.24769 11.5398L8.94375 12.1068L5.79039 6H12.1351L11.2233 7.75957L10.6914 8.78023L10.2355 9.68748Z" fill="white"/>
</svg>
